!!!SOCIAL_FUNCTION: hand game and ghost dance songs
!!!PDT:	1929
!!!LING_GROUP: Caddoan
!!!LANG: Non-Tone
!!!REG: Oklahoma
!!!COM: Anon.
!!!OTL: Song Concerning the Ghost Dance
!!!ODT: <1920//
!!!MPN: Tutukrawitsu [He overtook the enemy, Wicita Blain]
!!!MLC: Pawnee, Oklahoma, United States of America
!! Song was recorded either 1919 or 1920.
!!!AGN: monody
!!!SOCIAL_FUNCTION2: Ghost dance
!!!AMT: irregular
!!!RWG: Transcribed pitches, durations, and meters are only approximate.
!! Drum not recorded
**kern	**silbe	**words	**words
*ICvox	*LPawnee	*LPawnee	*LEnglish
*Imale	*	*	*
*clefF4	*	*	*
*k[]	*	*	*
*MM76	*MM76	*MM76	*MM76
*[A,A]	*[A,A]	*[A,A]	*[A,A]
*>A	*>A	*>A	*>A
*M3/4	*M3/4	*M3/4	*M3/4
16e	Wi	Wi	There
=1	=1	=1	=1
2e	ra	ra	coming
4d	ha	ha	yonder
*M4/4	*M4/4	*M4/4	*M3/4
=2	=2	=2	=2
16e	i	i	it
16e	i	i	it
(16.c	ya	.	.
32A)	|	.	.
4c	a	.	.
4A	ha	ha	yonder
8.A	i	i	it
16A	ra	ra	coming
*M3/4	*M3/4	*M3/4	*M3/4
=3	=3	=3	=3
2e	ha	ha	yonder
4d	a	.	.
=4	=4	=4	=4
16e	i	i	it
16e	i	i	it
(16.c	ya	.	.
32A)	|	.	.
(4c	ha	ha	yonder
4A)	|	.	.
=5	=5	=5	=5
! slurs added	!	!	!
(16c	he	.	.
16A)	|	.	.
(16.E	a	.	.
32D)	|	.	.
(4E	ha	ha	yonder
4D)	|	.	.
=6	=6	=6	=6
16E	i	i	it
16D	ra	ra	coming
(16.C	ha	ha	yonder
32AA)	|	.	.
(4C	ha	ha	yonder
4AA)	|	.	.
=7	=7	=7	=7
16D	i	i	it
16D	ra	ra	coming
(16.C	ha	ha	yonder
32AA)	|	.	.
(8.C	ho	.	.
16AA)	|	.	.
8.AA	he	.	.
16AA	a	.	.
=8	=8	=8	=8
2AA	he	.	.
8.A	ti	ti	this
16A	we-	weri	now
=9	=9	=9	=9
4e	-ri	.	.
4e	hak	hak	stick
4d	tsa	tsa	lies
=10	=10	=10	=10
8e	a-	atias	father
8c	-ti-	.	.
(4c	-as	.	.
4A)	|	.	.
*M2/4	*M2/4	*M2/4	*M2/4
=11	=11	=11	=11
8A	pi-	pirau	child
8E	-ra-	.	.
8.E	-u	.	.
16E	ku-	kura	his
=12	=12	=12	=12
4E	-ra	.	.
4D	a	.	.
*M3/4	*M3/4	*M3/4	*M3/4
=13	=13	=13	=13
16E	ku-	kura	his
16E	-ra	.	.
(16.C	hak	hak	stick
32AA)	|	.	.
(4C	kux	kux	his
4AA)	|	.	.
=14	=14	=14	=14
16D	ti	ti	he
16C	ku	ku	to me
(16.C	hak	hak	stick
32AA)	|	.	.
(8.C	kux	kux	his
16AA)	|	.	.
8.AA	i	i	it
16AA	ra	ra	coming
=15	=15	=15	=15
[4AA	ha	ha	yonder
4..A]	|	.	.
==:|!	==:|!	==:|!	==:|!
*-	*-	*-	*-
!!!HAO:    The final song of this group is concerning the Ghost dance and,
!!!HAO: according to Mr. Murie, was sung in the Young Dog Society.  The
!!!HAO: words "the father's child" refer to the messiah whose coming was
!!!HAO: expected in the Ghost dance.
!!!HTX: There it is lying yonder, this stick lying here,
!!!HTX: The father's own child gave it to me,
!!!HTX: It is coming yonder.
!!!CNT: Pawnee
!!!TXO: Pawnee
!!!OCY: United States
!!!OCL: Frances Densmore
!!!YOR: Frances Densmore, "Pawnee Music"
!!!YOR: Bulletin 93, page 86, No. 59
!!!PPR: Smithsonian Institution, Bureau of American Ethnology
!!!PPR: Government Printing Office
!!!PDT: 1926
!!!PPP: Washington, DC, United States of America
!!!YEC: Electronic Copyright 2000 David Huron
!!!YER: September 2000
!!!YEN: United States of America
!!!ENC: David Huron
!!!RDT: September 5, 2000
!!!EEV: Release 1.0
!!!AIN: vox
